X: 322
T: Zhuan Shantou
L: 1/8
M: 2/4
K: A
c f e c [I:setbarnb 1]| 
e cB2 | 
c/ e/ G F A | 
B4 | 
c f e c | 
c/ e/G3 | 
F B/ B/ G F | 
E4 | 
F E/ G/ F E | 
F2c3/ B/ | 
A F E C | 
B,4 | 
c> f e3/ c/ | 
e c B B/ c/ | 
E C E F | 
c4 | 
A F/ F/ E C | 
B4 |]

@@@ Tune index: 9196
